X: 41
T:Halfway To Yoghurt
M:2/4
R:Bourree
L:1/8
C:Steve Mansfield August 2003
N:Rather than throw it away, we put a pint of milk
N: in the car before driving down to Sidmouth for the festival.
N: When we reached our flat, however, the milk was ...
Z:Steve Mansfield 20070808
K:Bm
EG Be- | ed ef | ed/c/ Be | d/c/B AG | EG Be- | ed ef |
ed/c/ B=c |1 B4 :|2 B3 c || de fB- | B4 |
ed eA- | AB c/B/A | de fB- | Bc dB | e4- | e4 |
de fB- | B4 | ed eA- | AB c/B/A | de fd | cd Ad | B4- | B4 ||
<end>
<start>
